X: 30880
T: Out On The Road
R: jig
M: 6/8
K: Dmajor
DE|:F2EDFA|dfed2c|BAdBAF|ABAAFE|F2EDFA|dfed2c|BAdBAF
[1 EFED2E:|2 EFED3]|AddedB|AdfedB|AddBdd|
BAFAFE|AddedB|defafe|BAFAFE|EFED3|
AddedB|AdfedB|AddBdd|Adfe2f/g/|
afdf3|dBAd3|BAFAFE|EFED3||

